X:183
T:The Dusty Miller
R:slipjig
D:Tommy Keane: The Piper's Apron
D:The Chieftans: Water from the Well
N:Suzi
M:9/8
K:D
|:A3 A2G A2G|A3 A2G B2d|A3 A2G A2G|B2G ~G3 B2d:|
|:A2D ~D3 A2d|A2D ~D3 B2d|A2D ~D3 G2A|B2B B2A B2d:|
%%text Variations
|:A3 A2G A2D|A3 A2G B2d|A3 A2G A2D|B2G ~G3 B2d:|
|:A2D ~D3 A2D|A2D ~D3 B2d|A2D ~D3 A2D|B2G ~G3 B2d:|
